X:1
T:Cats and Birds
C:Paul Rosen
S:Copyright 2005, Paul Rosen
M:4/4
L:1/8
Q:C4=120
R:old-time
K:C
|:GA|"C"c2Bc A2G2|"Am"E2EG E2C2|"F"F2FG A2F2|"G7"GABG ABGA|
"C"c2Bc A2G2|"Am"E2EG E2EG|"G7"FGAc ded2|"C"c2ccc2:|c2
|:"Am"e2eg ageg|abag age2|"F"f2fg aga2|"G"g2ga geBd|
"Am"e2eg ageg|abag age2|"G"gega ged2|"C"c2ccc2c2:|
